icons/desktop/16/svg/location-16.svg

<svg width="16" height="17" viewBox="0 0 16 17" fill="none" xmlns="http://www.w3.org/2000/svg">
<path fill-rule="evenodd" clip-rule="evenodd" d="M8 4.00977C9.65677 4.00977 10.9999 5.35302 11 7.00977C11 8.66662 9.65685 10.0098 8 10.0098C6.34315 10.0098 5 8.66662 5 7.00977C5.00013 5.35302 6.34323 4.00977 8 4.00977ZM8 5.50977C7.17165 5.50977 6.50013 6.18145 6.5 7.00977C6.5 7.83819 7.17157 8.50977 8 8.50977C8.82843 8.50977 9.5 7.83819 9.5 7.00977C9.49987 6.18145 8.82835 5.50977 8 5.50977Z" fill="black"/>
<path fill-rule="evenodd" clip-rule="evenodd" d="M8 0C11.8672 0 14.9999 3.13869 15 7.00879C15 8.45629 14.1241 10.0686 13.1426 11.4561C12.1338 12.882 10.8963 14.2292 9.96094 15.1768C8.8773 16.2741 7.1227 16.2741 6.03906 15.1768C5.10366 14.2292 3.86621 12.882 2.85742 11.4561C1.87594 10.0686 1 8.45629 1 7.00879C1.00011 3.13869 4.13284 0 8 0ZM8 1.5C4.9633 1.5 2.50011 3.96508 2.5 7.00879C2.5 7.94715 3.11342 9.22064 4.08203 10.5898C5.02337 11.9205 6.19689 13.2016 7.10645 14.123L7.20312 14.2109C7.70117 14.6234 8.42816 14.5943 8.89355 14.123L9.61719 13.3691C10.3752 12.5579 11.212 11.5878 11.918 10.5898C12.8866 9.22064 13.5 7.94715 13.5 7.00879C13.4999 3.96508 11.0367 1.5 8 1.5Z" fill="black"/>
</svg>

<!-- This Source Code Form is subject to the terms of the Mozilla Public
   - License, v. 2.0. If a copy of the MPL was not distributed with this
   - file, You can obtain one at http://mozilla.org/MPL/2.0/. -->
<svg xmlns="http://www.w3.org/2000/svg" width="16" height="17" fill="context-fill" fill-opacity="context-fill-opacity" viewBox="0 0 16 17">
    <path fill-rule="evenodd" d="M8 4.01a3 3 0 1 1 0 6 3 3 0 0 1 0-6m0 1.5a1.5 1.5 0 1 0 0 3 1.5 1.5 0 0 0 0-3" clip-rule="evenodd" />
    <path fill-rule="evenodd" d="M8 0c3.867 0 7 3.139 7 7.009 0 1.447-.876 3.06-1.857 4.447-1.01 1.426-2.247 2.773-3.182 3.72a2.75 2.75 0 0 1-3.922 0c-.935-.947-2.173-2.294-3.182-3.72C1.876 10.07 1 8.456 1 7.01 1 3.139 4.133 0 8 0m0 1.5a5.504 5.504 0 0 0-5.5 5.509c0 .938.613 2.212 1.582 3.58.941 1.332 2.115 2.613 3.024 3.534l.097.088a1.246 1.246 0 0 0 1.69-.088l.724-.754c.758-.811 1.595-1.781 2.301-2.78.969-1.368 1.582-2.642 1.582-3.58A5.504 5.504 0 0 0 8 1.5" clip-rule="evenodd" />
</svg>
